X: 201
T: Laus Deo
T: Praise be to God
C: Bert Murray
R: march
B: Bert Murray's "Bon Accord Collection" 1999 p.20
N: Motto of Clan Arbuthnott
Z: 2011 John Chambers <jc:trillian.mit.edu>
N: Added dots to both final A notes to correct the rhythm.
M: 4/4
L: 1/16
K: A
|: ue2 |\
c3e cBAB c2A2 A2(cd) | e3f e2c2 e6 (ce) | a3f f2a2 ke2fe kc2BA | cB3 B2c2 B2f2e2d2 |
c3e cBAB c2A2 A2(cd) | e3f e2c2 e6 (ce) | a3f f2a2 ke2fe kc2BA | B3A B2c2 A6 :|
|: ue2 |\
a3e cBAB c2e2 e2(ce) | f3d d2f2 e6 (ce) | a3f f2a2 ke2fe kc2BA | cB3 B2c2 B6 e2 |
a3e cBAB c2e2 e2(ce) | f3d d2f2 e6 (ce) | a3f f2a2 ke2fe kc2BA | B3A B2c2 A6 :|

%%sep 2 1 500

